images/icon/gameMenu_icon3_SicBo_front.svg

<svg height="100" viewBox="0 0 91 100" width="91" xmlns="http://www.w3.org/2000/svg" xmlns:xlink="http://www.w3.org/1999/xlink"><linearGradient id="a" x1="50%" x2="50%" y1="3.41%" y2="100%"><stop offset="0" stop-color="#000f24" stop-opacity=".9"/><stop offset="1" stop-color="#011b3e"/></linearGradient><g fill="none" fill-rule="evenodd" stroke="#b0936d" transform="translate(1 1)"><path d="m46 11.5h-4c-5.6609187 0-10.7859187 2.2945407-14.495689 6.004311s-6.004311 8.8347703-6.004311 14.495689v54.5h45v-54.5c0-5.6609187-2.2945407-10.7859187-6.004311-14.495689s-8.8347703-6.004311-14.495689-6.004311z" fill="url(#a)"/><g stroke-width="1.75"><path d="m44.76942.44946c18.6381 0 33.75 13.5594 33.75 30.2913v56.1087l-10.8-.001v.001h-45.9v-.001h45.9v-56.1077c0-10.641213-10.0902275-19.3162474-22.5710689-19.488684l-.3789311-.002616c-12.6549 0-22.95 8.7426-22.95 19.4913v56.1077l-10.8.001v-56.1087c0-16.7319 15.1092-30.2913 33.75-30.2913z" fill="url(#a)"/><path d="m32.61942 76.04946v-45.3087c0-4.6305 5.6781-8.6913 12.15-8.6913s12.15 4.0608 12.15 8.6913v45.3087z" fill="url(#a)"/><path d="m86.024 98.087h-82.512l-2.7-11.237h87.912z" fill="url(#a)"/><path d="m44.769 39.127-5.4-5.4 5.4-5.399 5.4 5.399z"/><path d="m44.769 54.6-5.4-5.4 5.4-5.4 5.4 5.4z"/><path d="m44.769 70.075-5.4-5.4 5.4-5.4 5.4 5.4z"/></g></g></svg>

<svg xmlns="http://www.w3.org/2000/svg" width="91" height="100" viewBox="0 0 91 100">
  <defs>
    <linearGradient id="gamemenu_icon3_sicbo_front-a" x1="50%" x2="50%" y1="3.41%" y2="100%">
      <stop offset="0%" stop-color="#000F24" stop-opacity=".9"/>
      <stop offset="100%" stop-color="#011B3E"/>
    </linearGradient>
    <linearGradient id="gamemenu_icon3_sicbo_front-b" x1="50%" x2="50%" y1="3.41%" y2="100%">
      <stop offset="0%" stop-color="#000F24" stop-opacity=".9"/>
      <stop offset="100%" stop-color="#011B3E"/>
    </linearGradient>
    <linearGradient id="gamemenu_icon3_sicbo_front-c" x1="50%" x2="50%" y1="3.41%" y2="100%">
      <stop offset="0%" stop-color="#000F24" stop-opacity=".9"/>
      <stop offset="100%" stop-color="#011B3E"/>
    </linearGradient>
    <linearGradient id="gamemenu_icon3_sicbo_front-d" x1="50%" x2="50%" y1="3.41%" y2="100%">
      <stop offset="0%" stop-color="#000F24" stop-opacity=".9"/>
      <stop offset="100%" stop-color="#011B3E"/>
    </linearGradient>
  </defs>
  <g fill="none" fill-rule="evenodd" stroke="#B0936D" transform="translate(1 1)">
    <path fill="url(#gamemenu_icon3_sicbo_front-a)" d="M46,11.5 L42,11.5 C36.3390813,11.5 31.2140813,13.7945407 27.504311,17.504311 C23.7945407,21.2140813 21.5,26.3390813 21.5,32 L21.5,86.5 L66.5,86.5 L66.5,32 C66.5,26.3390813 64.2054593,21.2140813 60.495689,17.504311 C56.7859187,13.7945407 51.6609187,11.5 46,11.5 Z"/>
    <path fill="url(#gamemenu_icon3_sicbo_front-b)" stroke-width="1.75" d="M44.76942,0.44946 C63.40752,0.44946 78.51942,14.00886 78.51942,30.74076 L78.51942,30.74076 L78.51942,86.84946 L67.71942,86.84846 L67.71942,86.84946 L21.81942,86.84946 L21.81942,86.84846 L67.71942,86.84846 L67.71942,30.74076 C67.71942,20.099547 57.6291925,11.4245126 45.1483511,11.252076 L44.76942,11.24946 C32.11452,11.24946 21.81942,19.99206 21.81942,30.74076 L21.81942,30.74076 L21.81942,86.84846 L11.01942,86.84946 L11.01942,30.74076 C11.01942,14.00886 26.12862,0.44946 44.76942,0.44946 Z"/>
    <path fill="url(#gamemenu_icon3_sicbo_front-c)" stroke-width="1.75" d="M32.61942,76.04946 L32.61942,30.74076 C32.61942,26.11026 38.29752,22.04946 44.76942,22.04946 C51.24132,22.04946 56.91942,26.11026 56.91942,30.74076 L56.91942,76.04946 L32.61942,76.04946 Z"/>
    <polygon fill="url(#gamemenu_icon3_sicbo_front-d)" stroke-width="1.75" points="86.024 98.087 3.512 98.087 .812 86.85 88.724 86.85"/>
    <polygon stroke-width="1.75" points="44.769 39.127 39.369 33.727 44.769 28.328 50.169 33.727"/>
    <polygon stroke-width="1.75" points="44.769 54.6 39.369 49.2 44.769 43.8 50.169 49.2"/>
    <polygon stroke-width="1.75" points="44.769 70.075 39.369 64.675 44.769 59.275 50.169 64.675"/>
  </g>
</svg>
